svg/s/VC.svg

<svg width="16" height="12" viewBox="0 0 16 12" fill="none" xmlns="http://www.w3.org/2000/svg">
<mask id="mask0" mask-type="alpha" maskUnits="userSpaceOnUse" x="0" y="0" width="16" height="12">
<rect width="16" height="12" fill="white"/>
</mask>
<g mask="url(#mask0)">
<path fill-rule="evenodd" clip-rule="evenodd" d="M4 0H12V12H4V0Z" fill="#FFDC17"/>
<path fill-rule="evenodd" clip-rule="evenodd" d="M12 0H16V12H12V0Z" fill="#5FBF2B"/>
<path fill-rule="evenodd" clip-rule="evenodd" d="M0 0H4V12H0V0Z" fill="#2E42A5"/>
<path fill-rule="evenodd" clip-rule="evenodd" d="M9.86319 2.5L8.34314 4.73144L9.86319 6.88395L11.3833 4.73144L9.86319 2.5ZM6.13861 2.53942L4.5 4.73144L6.02006 6.84461L7.54011 4.73144L6.13861 2.53942ZM6.42157 7.1944L8.06018 5.00239L9.46168 7.1944L8.06018 9.45057L6.42157 7.1944Z" fill="#5FBF2B"/>
</g>
</svg>

<svg width="16" height="12" fill="none" xmlns="http://www.w3.org/2000/svg">
  <mask id="a" maskUnits="userSpaceOnUse" x="0" y="0" width="16" height="12">
    <path fill="#fff" d="M0 0h16v12H0z"/>
  </mask>
  <g mask="url(#a)" fill-rule="evenodd" clip-rule="evenodd">
    <path d="M4 0h8v12H4V0z" fill="#FFDC17"/>
    <path d="M12 0h4v12h-4V0z" fill="#5FBF2B"/>
    <path d="M0 0h4v12H0V0z" fill="#2E42A5"/>
    <path d="M9.863 2.5l-1.52 2.231 1.52 2.153 1.52-2.153L9.863 2.5zm-3.724.04L4.5 4.73l1.52 2.114L7.54 4.73l-1.4-2.19zm.283 4.654L8.06 5.002l1.402 2.192L8.06 9.451 6.422 7.194z" fill="#5FBF2B"/>
  </g>
</svg>
